img/twitter.svg

<svg width="24" height="24" viewBox="0 0 24 24" fill="none" xmlns="http://www.w3.org/2000/svg">
<g clip-path="url(#clip0_5058_63)">
<path d="M23.954 4.56909C23.069 4.95809 22.124 5.22309 21.129 5.34409C22.143 4.73309 22.923 3.77009 23.292 2.62109C22.341 3.17609 21.287 3.58009 20.165 3.80509C19.269 2.84609 17.992 2.24609 16.574 2.24609C13.857 2.24609 11.654 4.44909 11.654 7.16309C11.654 7.55309 11.699 7.92809 11.781 8.28709C7.691 8.09409 4.066 6.13009 1.64 3.16109C1.213 3.88309 0.974 4.72209 0.974 5.63609C0.974 7.34609 1.844 8.84909 3.162 9.73209C2.355 9.70609 1.596 9.48409 0.934 9.11609V9.17709C0.934 11.5621 2.627 13.5511 4.88 14.0041C4.467 14.1151 4.031 14.1751 3.584 14.1751C3.27 14.1751 2.969 14.1451 2.668 14.0891C3.299 16.0421 5.113 17.4661 7.272 17.5061C5.592 18.8251 3.463 19.6111 1.17 19.6111C0.78 19.6111 0.391 19.5881 0 19.5441C2.189 20.9381 4.768 21.7531 7.557 21.7531C16.611 21.7531 21.556 14.2571 21.556 7.76709C21.556 7.55809 21.556 7.34709 21.541 7.13709C22.502 6.44809 23.341 5.57709 24.001 4.58909L23.954 4.56909Z" fill="white"/>
</g>
<defs>
<clipPath id="clip0_5058_63">
<rect width="24" height="24" fill="white"/>
</clipPath>
</defs>
</svg>

<svg width="24" height="24" fill="none" xmlns="http://www.w3.org/2000/svg"><g clip-path="url(#a)"><path d="M23.954 4.57a10 10 0 0 1-2.825.774 4.958 4.958 0 0 0 2.163-2.723c-.951.555-2.005.96-3.127 1.184a4.92 4.92 0 0 0-8.384 4.482C7.691 8.094 4.066 6.13 1.64 3.161a4.822 4.822 0 0 0-.666 2.475c0 1.71.87 3.213 2.188 4.096a4.904 4.904 0 0 1-2.228-.616v.061a4.923 4.923 0 0 0 3.946 4.827 4.996 4.996 0 0 1-2.212.085 4.937 4.937 0 0 0 4.604 3.417 9.868 9.868 0 0 1-6.102 2.105c-.39 0-.779-.023-1.17-.067a13.995 13.995 0 0 0 7.557 2.21c9.054 0 13.999-7.497 13.999-13.987 0-.209 0-.42-.015-.63a9.936 9.936 0 0 0 2.46-2.548l-.047-.02Z" fill="#fff"/></g><defs><clipPath id="a"><path fill="#fff" d="M0 0h24v24H0z"/></clipPath></defs></svg>
